actions/24/list-add.svg

<?xml version="1.0" encoding="UTF-8" standalone="no"?>
<!-- Created with Inkscape (http://www.inkscape.org/) -->

<svg
   xmlns:svg="http://www.w3.org/2000/svg"
   xmlns="http://www.w3.org/2000/svg"
   xmlns:xlink="http://www.w3.org/1999/xlink"
   version="1.0"
   width="24"
   height="24"
   id="svg2">
  <defs
     id="defs4">
    <linearGradient
       id="linearGradient5105-262-943-861">
      <stop
         id="stop2487"
         style="stop-color:#0d0d0d;stop-opacity:1"
         offset="0" />
      <stop
         id="stop2489"
         style="stop-color:#0d0d0d;stop-opacity:0"
         offset="1" />
    </linearGradient>
    <radialGradient
       cx="11.25"
       cy="19.03125"
       r="8.0625"
       fx="11.25"
       fy="19.03125"
       id="radialGradient2403"
       xlink:href="#linearGradient5105-262-943-861"
       gradientUnits="userSpaceOnUse"
       gradientTransform="matrix(1.4061954,0,0,0.3867044,-3.8196983,13.522738)" />
    <linearGradient
       id="linearGradient2264">
      <stop
         id="stop2266"
         style="stop-color:#d7e866;stop-opacity:1"
         offset="0" />
      <stop
         id="stop2268"
         style="stop-color:#8cab2a;stop-opacity:1"
         offset="1" />
    </linearGradient>
    <linearGradient
       x1="24.103895"
       y1="15.180944"
       x2="24.103895"
       y2="34.224861"
       id="linearGradient2400"
       xlink:href="#linearGradient2264"
       gradientUnits="userSpaceOnUse"
       gradientTransform="matrix(0.8988874,0,0,0.8934652,-9.4637044,-8.565972)" />
    <linearGradient
       id="linearGradient4222">
      <stop
         id="stop4224"
         style="stop-color:white;stop-opacity:1"
         offset="0" />
      <stop
         id="stop4226"
         style="stop-color:white;stop-opacity:0"
         offset="1" />
    </linearGradient>
    <linearGradient
       x1="24.138529"
       y1="6.5316639"
       x2="24.138529"
       y2="45.690399"
       id="linearGradient2397"
       xlink:href="#linearGradient4222"
       gradientUnits="userSpaceOnUse"
       gradientTransform="matrix(0.5399382,0,0,0.5366811,-0.8489227,-0.506198)" />
  </defs>
  <g
     id="layer1">
    <path
       d="M 23.33745,20.882198 C 23.33745,22.604113 18.261501,24 12,24 5.7384988,24 0.6625494,22.604113 0.66254954,20.882198 0.6625494,19.160283 5.7384988,17.764397 12,17.764397 c 6.261501,0 11.33745,1.395886 11.33745,3.117801 l 0,0 z"
       id="path2621"
       style="opacity:0.3;fill:url(#radialGradient2403);fill-opacity:1;fill-rule:nonzero;stroke:none;stroke-width:1;marker:none;visibility:visible;display:inline;overflow:visible" />
    <path
       d="m 8.5663796,8.4948187 0,-5.9948187 6.9336204,0 0,5.9948187 6,0 0,7.0051813 -6,0 0,6 -6.9397278,0 -0.027869,-6 -6.0324033,0 0,-7.0051813 6.0663796,0 z"
       id="path2262"
       style="fill:url(#linearGradient2400);fill-opacity:1;fill-rule:evenodd;stroke:#699536;stroke-width:1;stroke-linecap:butt;stroke-linejoin:round;stroke-miterlimit:4;stroke-opacity:1;stroke-dasharray:none;display:inline" />
    <path
       d="M 9.5,9.4948187 9.5,3.5 l 5,0 0,5.9948187 6,0 0,5.0051813 -6,0 0,6 -5,0 0,-6 -6,0 0,-5.0051813 6,0 z"
       id="path2272"
       style="opacity:0.4;fill:none;stroke:url(#linearGradient2397);stroke-width:1;stroke-linecap:butt;stroke-linejoin:miter;stroke-miterlimit:4;stroke-opacity:1;stroke-dasharray:none;display:inline" />
  </g>
</svg>

<?xml version="1.0" encoding="UTF-8" standalone="no"?>
<!-- Created with Inkscape (http://www.inkscape.org/) -->
<svg
   xmlns:svg="http://www.w3.org/2000/svg"
   xmlns="http://www.w3.org/2000/svg"
   xmlns:xlink="http://www.w3.org/1999/xlink"
   version="1.0"
   width="24"
   height="24"
   id="svg2">
  <defs
     id="defs4">
    <linearGradient
       id="linearGradient5105-262-943-861">
      <stop
         id="stop2487"
         style="stop-color:#0d0d0d;stop-opacity:1"
         offset="0" />
      <stop
         id="stop2489"
         style="stop-color:#0d0d0d;stop-opacity:0"
         offset="1" />
    </linearGradient>
    <radialGradient
       cx="11.25"
       cy="19.03125"
       r="8.0625"
       fx="11.25"
       fy="19.03125"
       id="radialGradient2403"
       xlink:href="#linearGradient5105-262-943-861"
       gradientUnits="userSpaceOnUse"
       gradientTransform="matrix(1.4061954,0,0,0.3867044,-3.8196983,13.522738)" />
    <linearGradient
       id="linearGradient2264">
      <stop
         id="stop2266"
         style="stop-color:#d7e866;stop-opacity:1"
         offset="0" />
      <stop
         id="stop2268"
         style="stop-color:#8cab2a;stop-opacity:1"
         offset="1" />
    </linearGradient>
    <linearGradient
       x1="24.103895"
       y1="15.180944"
       x2="24.103895"
       y2="34.224861"
       id="linearGradient2400"
       xlink:href="#linearGradient2264"
       gradientUnits="userSpaceOnUse"
       gradientTransform="matrix(0.8988874,0,0,0.8934652,-9.4637044,-8.565972)" />
    <linearGradient
       id="linearGradient4222">
      <stop
         id="stop4224"
         style="stop-color:#ffffff;stop-opacity:1"
         offset="0" />
      <stop
         id="stop4226"
         style="stop-color:#ffffff;stop-opacity:0"
         offset="1" />
    </linearGradient>
    <linearGradient
       x1="24.138529"
       y1="6.5316639"
       x2="24.138529"
       y2="45.690399"
       id="linearGradient2397"
       xlink:href="#linearGradient4222"
       gradientUnits="userSpaceOnUse"
       gradientTransform="matrix(0.5399382,0,0,0.5366811,-0.8489227,-0.506198)" />
  </defs>
  <g
     id="layer1">
    <path
       d="M 23.33745,20.882198 C 23.33745,22.604113 18.261501,24 12,24 C 5.7384988,24 0.6625494,22.604113 0.66254954,20.882198 C 0.6625494,19.160283 5.7384988,17.764397 12,17.764397 C 18.261501,17.764397 23.33745,19.160283 23.33745,20.882198 L 23.33745,20.882198 z"
       id="path2621"
       style="opacity:0.3;fill:url(#radialGradient2403);fill-opacity:1;fill-rule:nonzero;stroke:none;stroke-width:1;stroke-linecap:butt;stroke-linejoin:miter;marker:none;marker-start:none;marker-mid:none;marker-end:none;stroke-miterlimit:4;stroke-dasharray:none;stroke-dashoffset:0;stroke-opacity:1;visibility:visible;display:inline;overflow:visible" />
    <path
       d="M 8.5663796,8.4948187 L 8.5663796,2.5 L 15.5,2.5 L 15.5,8.4948187 L 21.5,8.4948187 L 21.5,15.5 L 15.5,15.5 L 15.5,21.5 L 8.5602722,21.5 L 8.5324033,15.5 L 2.5,15.5 L 2.5,8.4948187 L 8.5663796,8.4948187 z"
       id="path2262"
       style="fill:url(#linearGradient2400);fill-opacity:1;fill-rule:evenodd;stroke:#699536;stroke-width:1;stroke-linecap:butt;stroke-linejoin:round;stroke-miterlimit:4;stroke-dasharray:none;stroke-opacity:1;display:inline" />
    <path
       d="M 9.5,9.4948187 L 9.5,3.5 L 14.5,3.5 L 14.5,9.4948187 L 20.5,9.4948187 L 20.5,14.5 L 14.5,14.5 L 14.5,20.5 L 9.5,20.5 L 9.5,14.5 L 3.5,14.5 L 3.5,9.4948187 L 9.5,9.4948187 z"
       id="path2272"
       style="opacity:0.4;fill:none;fill-opacity:1;fill-rule:evenodd;stroke:url(#linearGradient2397);stroke-width:1;stroke-linecap:butt;stroke-linejoin:miter;stroke-miterlimit:4;stroke-dasharray:none;stroke-opacity:1;display:inline" />
  </g>
</svg>
